build/img/video-camera.svg

<svg width="32" height="22" fill="none" xmlns="http://www.w3.org/2000/svg"><path d="M26 10l6-4v16l-6-4v-8zm-2 0v8c0 2.2-1.8 4-4 4H4c-2.2 0-4-1.8-4-4v-8c0-2.2 1.8-4 4-4h10c0-1.1.9-2 2-2V2H5c-.6 0-1-.4-1-1s.4-1 1-1h12c.6 0 1 .4 1 1v3c1.1 0 2 .9 2 2 2.2 0 4 1.8 4 4zm-12 0H4v8h8v-8zm8 1c0-.6-.4-1-1-1h-4c-.6 0-1 .4-1 1s.4 1 1 1h4c.6 0 1-.4 1-1z" fill="#63D1BB"/></svg>

<svg width="32" height="22" viewBox="0 0 32 22" fill="none" xmlns="http://www.w3.org/2000/svg">
<path d="M26 10L32 6V22L26 18V10ZM24 10V18C24 20.2 22.2 22 20 22H4C1.8 22 0 20.2 0 18V10C0 7.8 1.8 6 4 6H14C14 4.9 14.9 4 16 4V2H5C4.4 2 4 1.6 4 1C4 0.4 4.4 0 5 0H17C17.6 0 18 0.4 18 1V4C19.1 4 20 4.9 20 6C22.2 6 24 7.8 24 10ZM12 10H4V18H12V10ZM20 11C20 10.4 19.6 10 19 10H15C14.4 10 14 10.4 14 11C14 11.6 14.4 12 15 12H19C19.6 12 20 11.6 20 11Z" fill="#63D1BB"/>
</svg>
